packages/icons/svg/spa.svg

<svg xmlns="http://www.w3.org/2000/svg" width="24" height="24" viewBox="0 0 24 24">
    <path fill="none" d="M0 0h24v24H0V0zm13.97 21.49c-.63.23-1.29.4-1.97.51.68-.12 1.33-.29 1.97-.51zM12 22c-.68-.12-1.33-.29-1.97-.51.64.22 1.29.39 1.97.51z"/>
    <path fill="#607D8B" d="M8.55 12c-1.07-.71-2.25-1.27-3.53-1.61 1.28.34 2.46.9 3.53 1.61zm10.43-1.61c-1.29.34-2.49.91-3.57 1.64 1.08-.73 2.28-1.3 3.57-1.64z"/>
    <path d="M15.49 9.63c-.18-2.79-1.31-5.51-3.43-7.63-2.14 2.14-3.32 4.86-3.55 7.63 1.28.68 2.46 1.56 3.49 2.63 1.03-1.06 2.21-1.94 3.49-2.63zm-6.5 2.65c-.14-.1-.3-.19-.45-.29.15.11.31.19.45.29zm6.42-.25c-.13.09-.27.16-.4.26.13-.1.27-.17.4-.26zM12 15.45C9.85 12.17 6.18 10 2 10c0 5.32 3.36 9.82 8.03 11.49.63.23 1.29.4 1.97.51.68-.12 1.33-.29 1.97-.51C18.64 19.82 22 15.32 22 10c-4.18 0-7.85 2.17-10 5.45z"/>
</svg>

<?xml version="1.0" encoding="utf-8"?>
<!-- Generator: Adobe Illustrator 21.1.0, SVG Export Plug-In . SVG Version: 6.00 Build 0)  -->
<svg version="1.1" id="Layer_1" xmlns="http://www.w3.org/2000/svg" xmlns:xlink="http://www.w3.org/1999/xlink" x="0px" y="0px"
	 viewBox="0 0 24 24" style="enable-background:new 0 0 24 24;" xml:space="preserve">
<style type="text/css">
	.st0{fill:#001833;}
</style>
<path id="path-1_1_" class="st0" d="M15.5,9.6c-0.2-2.8-1.3-5.5-3.4-7.6C9.9,4.1,8.7,6.9,8.5,9.6c1.3,0.7,2.5,1.6,3.5,2.7
	C13,11.2,14.2,10.3,15.5,9.6L15.5,9.6z M9,12.3c-0.1-0.1-0.3-0.2-0.4-0.3C8.7,12.1,8.8,12.2,9,12.3z M15.4,12
	c-0.1,0.1-0.3,0.2-0.4,0.3C15.1,12.2,15.3,12.1,15.4,12z M12,15.4C9.8,12.2,6.2,10,2,10c0,5.3,3.4,9.8,8,11.5c0.6,0.2,1.3,0.4,2,0.5
	c0.7-0.1,1.3-0.3,2-0.5c4.7-1.7,8-6.2,8-11.5C17.8,10,14.1,12.2,12,15.4z M8.6,12c-1.1-0.7-2.3-1.3-3.6-1.6
	C6.3,10.7,7.5,11.3,8.6,12z M19,10.4c-1.3,0.3-2.5,0.9-3.6,1.6C16.5,11.3,17.7,10.7,19,10.4z"/>
</svg>
